X: 60
T: Missa De Sancto Job / Credo
N: Derived from Rue1013c-Missa_De_Sancto_Job-Credo.krn
C: Pierre de la Rue
%%abc-version 2.0
%%abcx-abcm2ps-target-version 5.9.1 (29 Sep 2008)
%%abc-creator hum2abc beta
%%abcx-conversion-date 2019/02/17 08:01:12
%%abc-edited-by Jesse Rodin
%%abc-edited-by Megan K. Eagen 2013/01/20
%%abcx-initial-encoding-date 2013/01/20/
%%humdrum-veritas 475863011
%%humdrum-veritas-data 514703386
%%linebreak <none>
%%barnumbers 0
L: 1/4
M: 3/1
Q: 1/2=120
%%staves [1 2 3 4]
V: 1 clef=treble
V: 2 clef=treble-8
V: 3 clef=treble-8
V: 4 clef=bass
K: F
[V:1] G8B3A | 
[V:2] G8G4 | 
[V:3] z12 | 
[V:4] z12 | 
[V:1] F2G2F2G4FE | 
[V:2] B8c4 | 
[V:3] z12 | 
[V:4] z12 | 
[V:1] F2B2A2d4c2 | 
[V:2] d8_e4 | 
[V:3] z12 | 
[V:4] z12 | 
[V:1] B2A4GFG2A2 | 
[V:2] d8z2d2 | 
[V:3] z12 | 
[V:4] z12 | 
[V:1] D4z2A2A2A2 | 
[V:2] d2d2e2f3edc | 
[V:3] z12 | 
[V:4] z12 | 
[V:1] B2c3BAGA2GA | 
[V:2] d2cdedf4e2 | 
[V:3] z12 | 
[V:4] z12 | 
[V:1] BAc4B4A2 | 
[V:2] d2_e2_edcBc4 | 
[V:3] z12 | 
[V:4] z12 | 
[V:1] B12 | 
[V:2] B2_e4_e2_e2_e2 | 
[V:3] z12 | 
[V:4] z12 | 
[V:1] z2B4B2B2B2 | 
[V:2] d2G3ABcd2e2 | 
[V:3] z12 | 
[V:4] z12 | 
[V:1] A2D3EFGA2B2 | 
[V:2] f8f4 | 
[V:3] z12 | 
[V:4] z12 | 
[V:1] c8c4 | 
[V:2] e2f3ecde2f2 | 
[V:3] z12 | 
[V:4] z12 | 
[V:1] B2c3BGAB2c2 | 
[V:2] d2e2c4z2AB | 
[V:3] z12 | 
[V:4] z12 | 
[V:1] A2B3AG4^F2 | 
[V:2] c2d3cB2A4 | 
[V:3] z12 | 
[V:4] z12 | 
[V:1] G12 | 
[V:2] G4z4z4 | 
[V:3] z4d8 | 
[V:4] G,8G,4 | 
[V:1] z12 | 
[V:2] z12 | 
[V:3] d4f6f2 | 
[V:4] B,6B,2A,2F,2 | 
[V:1] z12 | 
[V:2] z12 | 
[V:3] e2c2d3cA4 | 
[V:4] G,3F,D,4z2D,2 | 
[V:1] z12 | 
[V:2] z12 | 
[V:3] z2A2c3AB2c2- | 
[V:4] F,3D,E,2F,2E,D,C,2- | 
[V:1] z12 | 
[V:2] z12 | 
[V:3] c2G3ABcd3c | 
[V:4] C,D,E,F,G,3F,D,E,F,2- | 
[V:1] z12 | 
[V:2] z12 | 
[V:3] ABc4B4A2 | 
[V:4] F,2_E,D,E,D,C,B,,C,4 | 
[V:1] z12 | 
[V:2] z12 | 
[V:3] B2d4d2d2d2 | 
[V:4] B,,12 | 
[V:1] z12 | 
[V:2] z12 | 
[V:3] c2d3cBAG2B2 | 
[V:4] z2G,4G,2G,2G,2 | 
[V:1] z12 | 
[V:2] z12 | 
[V:3] A2GABAc3BAG | 
[V:4] F,2G,3F,E,D,C,2E,2 | 
[V:1] z12 | 
[V:2] z12 | 
[V:3] F2GA2GG4^F2 | 
[V:4] D,2C,3G,,B,,2A,,4 | 
[V:1] z4z4B4 | 
[V:2] z4z4g4 | 
[V:3] G12- | 
[V:4] G,,12 | 
[V:1] B4B2G4FE | 
[V:2] g4g2_e4dc | 
[V:3] G12 | 
[V:4] z4z4G,4 | 
[V:1] D2B3AG4FE | 
[V:2] B8c4 | 
[V:3] z12 | 
[V:4] G,4G,2_E,4D,C, | 
[V:1] D4z2G2G2G2 | 
[V:2] d2G2G2G3ABG | 
[V:3] B8G4 | 
[V:4] B,,4_E,8 | 
[V:1] A4A2F3GA2 | 
[V:2] d2cBA2B2F4 | 
[V:3] F8A4 | 
[V:4] D,2D,2D,2D,3_E,F,2 | 
[V:1] D2F4EDC4 | 
[V:2] z4A6A2 | 
[V:3] B4c8 | 
[V:4] B,,4F,4F,4 | 
[V:1] B,8z2B2 | 
[V:2] F4z2B2B2B2 | 
[V:3] d12- | 
[V:4] B,,12 | 
[V:1] B2B2B3AG4 | 
[V:2] B3AG4z2G2 | 
[V:3] d12 | 
[V:4] z4z2G,2G,3F, | 
[V:1] z2G2c3BA2cB | 
[V:2] c3BA2c3BAG | 
[V:3] z12 | 
[V:4] _E,D,C,4C,2F,3G, | 
[V:1] AGFEG2F4E2 | 
[V:2] FEA2BAGFG4 | 
[V:3] z12 | 
[V:4] A,2D,2B,,2D,2C,4 | 
[V:1] F8z4 | 
[V:2] F2B2A2B4AG | 
[V:3] d8d4 | 
[V:4] D,6B,,2B,,4- | 
[V:1] D4D2F4_ED | 
[V:2] F4B8 | 
[V:3] B4d8 | 
[V:4] B,,4z4z2B,,2 | 
[V:1] _E4D2D2D2F2- | 
[V:2] z4F6F2 | 
[V:3] c4B6B2 | 
[V:4] C,2A,,2B,,4B,,2D,2- | 
[V:1] F2D2_E2DCB,2F2- | 
[V:2] F4G2A2F2B2- | 
[V:3] B4c4d4 | 
[V:4] D,C,B,,4A,,2B,,4- | 
[V:1] F2F2F4G4 | 
[V:2] B2AGF4c4 | 
[V:3] d2d4d2_e4 | 
[V:4] B,,4D,4C,2C,2 | 
[V:1] F3D_E4D4 | 
[V:2] A2B2G2A2F2G2- | 
[V:3] d3Bc4B4 | 
[V:4] D,2B,,3A,,A,,2B,,2B,2- | 
[V:1] z2F3GABA2F2 | 
[V:2] GABcd3Bf4- | 
[V:3] d8d4 | 
[V:4] B,2B,2B,2A,G,F,4 | 
[V:1] ABcdc2B4A2 | 
[V:2] f4f4f4 | 
[V:3] c2ABc2d2c4 | 
[V:4] F,4A,2B,2F,4 | 
[V:1] B4z2A4A2 | 
[V:2] z2f2e2f4ed | 
[V:3] B4c8 | 
[V:4] B,,4z2F,4F,2 | 
[V:1] G2A2B2AGF2c2 | 
[V:2] e4f6e2 | 
[V:3] c4d2cBAGA2 | 
[V:4] C,2C,2B,,4D,2C,2 | 
[V:1] d2cBAGA2B2AG | 
[V:2] d4c4z2f2 | 
[V:3] B4z2c2d2cB | 
[V:4] B,,4F,4B,,3C, | 
[V:1] FEA4G4^F2 | 
[V:2] f2f3d_e2d4 | 
[V:3] AGc3BG2A4 | 
[V:4] D,E,F,4G,2D,4 | 
[V:1] G12 | 
[V:2] d2B4AGB2AG | 
[V:3] G8z4 | 
[V:4] G,,12 | 
[V:1] z12 | 
[V:2] F8z4 | 
[V:3] A4A2A4B2- | 
[V:4] z4z4D,4 | 
[V:1] z12 | 
[V:2] z12 | 
[V:3] BAAGF2c3BBA | 
[V:4] D,2D,4_E,3D,D,C, | 
[V:1] z12 | 
[V:2] z12 | 
[V:3] GFB4A2B4 | 
[V:4] B,,2D,2C,4B,,4 | 
[V:1] z12 | 
[V:2] z12 | 
[V:3] z2A4A2A4 | 
[V:4] D,8D,2D,2 | 
[V:1] z12 | 
[V:2] z12 | 
[V:3] B2A4d4c2 | 
[V:4] D,3E,F,2G,2E,4 | 
[V:1] z12 | 
[V:2] z12 | 
[V:3] d2A4c2B2A2- | 
[V:4] D,4F,2E,2D,3E, | 
[V:1] z12 | 
[V:2] z12 | 
[V:3] ABcAB2A3GED | 
[V:4] F,D,E,2D,3C,A,,B,,C,D, | 
[V:1] z12 | 
[V:2] z4z4z2A2 | 
[V:3] FGA3GG4^F2 | 
[V:4] B,,2C,2G,,3B,,A,,4 | 
[V:1] z4z4G4 | 
[V:2] Bcd_ed2c4B2 | 
[V:3] G12- | 
[V:4] G,,4z4G,,4 | 
[V:1] E2E2E2E2D2G2- | 
[V:2] c2c4BAB2G2 | 
[V:3] G12 | 
[V:4] C,2C,2C,2C,2G,,4 | 
[V:1] G2FEF2D2F2G2 | 
[V:2] B2c2d4z2e2 | 
[V:3] z12 | 
[V:4] z12 | 
[V:1] A4z2B2c2A2- | 
[V:2] f2d4cBA2F2 | 
[V:3] z12 | 
[V:4] z12 | 
[V:1] A2GFEDF2E4 | 
[V:2] A3Bc2d4^c2 | 
[V:3] A8A4 | 
[V:4] z12 | 
[V:1] D4z4z4 | 
[V:2] d4z4z4 | 
[V:3] A2B4A4GF | 
[V:4] D,8D,2_E,2- | 
[V:1] z12 | 
[V:2] z12 | 
[V:3] G2A2B3AA2F2 | 
[V:4] E,2D,4C,B,,C,2D,2 | 
[V:1] z12 | 
[V:2] z12 | 
[V:3] G2A2BAGFE4 | 
[V:4] E,2F,3E,D,4^C,2 | 
[V:1] F8F4 | 
[V:2] d8d4 | 
[V:3] D8z4 | 
[V:4] D,2D,2B,,4D,4 | 
[V:1] G4B8 | 
[V:2] _e3dB2B3cd=e | 
[V:3] z4d8 | 
[V:4] C,3B,,G,,8 | 
[V:1] A2F3GABc3B | 
[V:2] f4z2f4ed | 
[V:3] d4c4A2c2- | 
[V:4] D,3E,F,E,F,3E,C,2- | 
[V:1] G2A4G4^F2 | 
[V:2] e2f2e2dcd4 | 
[V:3] c2BAB2G2A4 | 
[V:4] C,2F,2G,4D,4 | 
[V:1] G8z2c2 | 
[V:2] B2_e2_e2_e4dc | 
[V:3] G2c4c2c2c2- | 
[V:4] z2C,2C,2C,4A,,2 | 
[V:1] c2c4BAA4 | 
[V:2] c8f4 | 
[V:3] c2BAA4d4 | 
[V:4] A,,8z4 | 
[V:1] z4z4d4 | 
[V:2] e2c4BAB4 | 
[V:3] c2A4GFG4 | 
[V:4] A,,3B,,C,2D,2B,,4 | 
[V:1] c2A4GFG2A2 | 
[V:2] c4z4z4 | 
[V:3] A4d4c2A2- | 
[V:4] A,,4z4z4 | 
[V:1] c4B2A3GG2 | 
[V:2] z4z4d4 | 
[V:3] A2GFG2A2B4 | 
[V:4] z12 | 
[V:1] A2c4c2c3B | 
[V:2] c3de2f2e3d | 
[V:3] A12- | 
[V:4] A,,4A,,2A,,2A,,3B,, | 
[V:1] A2G2F2EDC4 | 
[V:2] c4z4z2c2- | 
[V:3] A12 | 
[V:4] C,2C,2D,4A,,4 | 
[V:1] z2c4c2c3B | 
[V:2] c2c2A4A2c2- | 
[V:3] z2E4E2E4 | 
[V:4] A,,6A,,2A,,4 | 
[V:1] A2G2F3EC2D2- | 
[V:2] cde2d3cA2B2- | 
[V:3] E4F8 | 
[V:4] C,4D,3E,F,2B,,2- | 
[V:1] DCA,2B,2G,2B,4- | 
[V:2] BAF2GABcd4- | 
[V:3] D4D2G4G2 | 
[V:4] B,,C,D,2G,,4G,,4 | 
[V:1] B,2A,2A,8 ||  
[V:2] d2d2d8 ||  
[V:3] F12 ||  
[V:4] D,12 ||  
[V:1]  [K:F] [K:clef=treble][M:2/1]z8 | 
[V:2]  [K:F] [K:clef=treble-8][M:2/1]d6cB | 
[V:3]  [K:F] [K:clef=treble-8][M:2/1]z8 | 
[V:4]  [K:F] [K:clef=bass][M:2/1]z8 | 
[V:1] A6GF | 
[V:2] c2d3ef2 | 
[V:3] z8 | 
[V:4] z8 | 
[V:1] G2A3Bc2 | 
[V:2] e2d4c2 | 
[V:3] z8 | 
[V:4] z8 | 
[V:1] B2A4G2 | 
[V:2] dcBAB4 | 
[V:3] z8 | 
[V:4] z8 | 
[V:1] A4z2E2 | 
[V:2] z2A2c2c2- | 
[V:3] z8 | 
[V:4] z8 | 
[V:1] G2G4FE | 
[V:2] c2BAB2c2 | 
[V:3] z8 | 
[V:4] z8 | 
[V:1] F2G2A4 | 
[V:2] d4z2d2 | 
[V:3] z8 | 
[V:4] z8 | 
[V:1] z2A2c4 | 
[V:2] f4e2c2 | 
[V:3] z8 | 
[V:4] z8 | 
[V:1] B2G2A2B2 | 
[V:2] d2e2f2ed | 
[V:3] z8 | 
[V:4] z8 | 
[V:1] c2BAG2A2- | 
[V:2] c2f2e2d2 | 
[V:3] z8 | 
[V:4] z8 | 
[V:1] A2F2E2D2 | 
[V:2] f2edc2d2- | 
[V:3] z8 | 
[V:4] z8 | 
[V:1] F2EDC2D2- | 
[V:2] d2f2e2d2 | 
[V:3] z8 | 
[V:4] z8 | 
[V:1] D2^C2D4 | 
[V:2] e4d4- | 
[V:3] A4B4- | 
[V:4] z4B,,4 | 
[V:1] z8 | 
[V:2] d4z4 | 
[V:3] B2B2B2AG | 
[V:4] B,,4B,,4 | 
[V:1] z8 | 
[V:2] z8 | 
[V:3] F2B4A2 | 
[V:4] D,8 | 
[V:1] z8 | 
[V:2] z8 | 
[V:3] G2c4B2 | 
[V:4] z2_E,4D,2 | 
[V:1] z8 | 
[V:2] z8 | 
[V:3] c2BAG4 | 
[V:4] C,2F,3E,E,2 | 
[V:1] z8 | 
[V:2] z8 | 
[V:3] z2F2G2A2 | 
[V:4] F,2E,D,C,4 | 
[V:1] z8 | 
[V:2] z8 | 
[V:3] B3AGFA2- | 
[V:4] z2B,,2C,4 | 
[V:1] z8 | 
[V:2] z8 | 
[V:3] AGc3BAG | 
[V:4] D,2_E,2E,D,C,B,, | 
[V:1] z8 | 
[V:2] z8 | 
[V:3] A2G4^F2 | 
[V:4] C,2G,,2A,,4 | 
[V:1] z4D4 | 
[V:2] z8 | 
[V:3] G8- | 
[V:4] G,,4G,,4 | 
[V:1] E6E2 | 
[V:2] z8 | 
[V:3] G8- | 
[V:4] C,4C,4 | 
[V:1] D4z2D2 | 
[V:2] z4d4 | 
[V:3] G8- | 
[V:4] G,,4B,,4 | 
[V:1] G4G4 | 
[V:2] e4e4 | 
[V:3] G8 | 
[V:4] C,4C,4 | 
[V:1] F4F4 | 
[V:2] d6d2 | 
[V:3] z8 | 
[V:4] D,4z2D,2 | 
[V:1] B4B4 | 
[V:2] d4e4 | 
[V:3] z8 | 
[V:4] G,6G,2 | 
[V:1] A3Bc2d2- | 
[V:2] f4e2f2- | 
[V:3] z8 | 
[V:4] F,3E,C,2B,,2 | 
[V:1] d2c2A2c2- | 
[V:2] f2edc4 | 
[V:3] z8 | 
[V:4] F,8 | 
[V:1] c2BAG2F2- | 
[V:2] c4B3c | 
[V:3] z8 | 
[V:4] z8 | 
[V:1] FGABcdc2- | 
[V:2] defgf4 | 
[V:3] z8 | 
[V:4] z8 | 
[V:1] c2B4A2 | 
[V:2] _edcBc4 | 
[V:3] z8 | 
[V:4] z8 | 
[V:1] B4B4 | 
[V:2] B4f4 | 
[V:3] d8 | 
[V:4] B,,8 | 
[V:1] B4B4 | 
[V:2] f4f4 | 
[V:3] d4d4 | 
[V:4] B,,4B,,4 | 
[V:1] A4B4 | 
[V:2] f8 | 
[V:3] d8 | 
[V:4] D,8 | 
[V:1] c3BG2A2- | 
[V:2] g4g2f2- | 
[V:3] _e6c2- | 
[V:4] C,3D,_E,2F,2- | 
[V:1] ABcAB2A2- | 
[V:2] f2e2d4 | 
[V:3] c4d3c | 
[V:4] F,_E,C,2G,2F,2 | 
[V:1] A2G4^F2 | 
[V:2] d8 | 
[V:3] B2AGA4 | 
[V:4] G,4D,4 | 
[V:1] G8 | 
[V:2] z4d4- | 
[V:3] G8 | 
[V:4] G,,4z2G,2- | 
[V:1] z8 | 
[V:2] d4d4 | 
[V:3] z4z2B2- | 
[V:4] G,2F,2G,2G,2 | 
[V:1] z8 | 
[V:2] d4d4 | 
[V:3] B2A2B2B2 | 
[V:4] D,4z2B,2- | 
[V:1] z8 | 
[V:2] f8 | 
[V:3] F4z2d2- | 
[V:4] B,2A,2B,2B,2 | 
[V:1] z8 | 
[V:2] f4f4 | 
[V:3] d2c2d2d2 | 
[V:4] F,4z4 | 
[V:1] z8 | 
[V:2] f2f2f3e | 
[V:3] A4A2A2- | 
[V:4] z2F,4D,2 | 
[V:1] z8 | 
[V:2] c2f4e2 | 
[V:3] A2GFG4 | 
[V:4] F,2F,2C,4 | 
[V:1] z8 | 
[V:2] f2edcBAG | 
[V:3] F4z4 | 
[V:4] z2F,4E,2 | 
[V:1] z8 | 
[V:2] A2B4A2 | 
[V:3] z8 | 
[V:4] F,2E,D,C,4 | 
[V:1] D4D2D2 | 
[V:2] B8 | 
[V:3] F8 | 
[V:4] B,,8 | 
[V:1] E2F4ED | 
[V:2] z8 | 
[V:3] G2A2B4 | 
[V:4] z8 | 
[V:1] E2F2G4 | 
[V:2] z8 | 
[V:3] AGA2B2c2- | 
[V:4] z8 | 
[V:1] FEF2G2A2 | 
[V:2] z8 | 
[V:3] c2BAB2c2 | 
[V:4] z8 | 
[V:1] F2EDE4 | 
[V:2] z8 | 
[V:3] d4c4 | 
[V:4] z8 | 
[V:1] D4z4 | 
[V:2] B4A2B2- | 
[V:3] d8 | 
[V:4] z4D,4 | 
[V:1] z8 | 
[V:2] B2G4c2- | 
[V:3] z8 | 
[V:4] E,4C,4 | 
[V:1] z8 | 
[V:2] c2A4d2- | 
[V:3] z8 | 
[V:4] F,4D,4 | 
[V:1] z8 | 
[V:2] d2c2d2B2- | 
[V:3] z8 | 
[V:4] E,4D,3E, | 
[V:1] z8 | 
[V:2] B2AGA4 | 
[V:3] z8 | 
[V:4] F,2G,4^F,2 | 
[V:1] z4D4 | 
[V:2] G4z4 | 
[V:3] B6B2 | 
[V:4] G,8 | 
[V:1] D3EF2G2- | 
[V:2] z8 | 
[V:3] B4B4 | 
[V:4] z8 | 
[V:1] G2E4A2- | 
[V:2] z8 | 
[V:3] c8 | 
[V:4] z8 | 
[V:1] A2F4B2 | 
[V:2] z8 | 
[V:3] d8 | 
[V:4] z8 | 
[V:1] B2B2B4 | 
[V:2] z8 | 
[V:3] z2d2d2d2 | 
[V:4] z8 | 
[V:1] A2A4G2 | 
[V:2] z4d4 | 
[V:3] dcBAB4 | 
[V:4] z8 | 
[V:1] A8- | 
[V:2] f2f2f4- | 
[V:3] A8- | 
[V:4] D,8 | 
[V:1] A8 | 
[V:2] f2edc4 | 
[V:3] A8 | 
[V:4] F,2F,2F,4- | 
[V:1] z8 | 
[V:2] cdefe2d2 | 
[V:3] z8 | 
[V:4] F,2E,D,C,2D,2- | 
[V:1] z8 | 
[V:2] f2edc2f2 | 
[V:3] z8 | 
[V:4] D,2F,2E,2D,2 | 
[V:1] z4G4 | 
[V:2] e2d4^c2 | 
[V:3] z8 | 
[V:4] G,F,E,D,E,4 | 
[V:1] F4F4- | 
[V:2] d8- | 
[V:3] A8 | 
[V:4] D,8 | 
[V:1] F4F4 | 
[V:2] d8 | 
[V:3] B4A4- | 
[V:4] z2D,2D,2D,2 | 
[V:1] F6F2 | 
[V:2] z8 | 
[V:3] A2A2A4 | 
[V:4] F,8 | 
[V:1] E4E4 | 
[V:2] G4G2G2 | 
[V:3] c4c2c2 | 
[V:4] C,2C,2C,2C,2 | 
[V:1] D4z2D2 | 
[V:2] G3AB2G2 | 
[V:3] B8 | 
[V:4] G,8 | 
[V:1] G4G4 | 
[V:2] d6d2 | 
[V:3] B4B2B2 | 
[V:4] z2G,2G,2G,2 | 
[V:1] G4G4 | 
[V:2] c4c4 | 
[V:3] G4G4 | 
[V:4] E,4E,4 | 
[V:1] F6ED | 
[V:2] d8- | 
[V:3] A4B4 | 
[V:4] D,8- | 
[V:1] F2D2F2G2 | 
[V:2] d8 | 
[V:3] A2B4AG | 
[V:4] D,4B,,4 | 
[V:1] A2B2c2A2 | 
[V:2] z4z2c2 | 
[V:3] F2G4F2 | 
[V:4] A,,2G,,2A,,4 | 
[V:1] B4G4 | 
[V:2] dcBAB2B2 | 
[V:3] G2_E2D4 | 
[V:4] G,,8 | 
[V:1] z4E4 | 
[V:2] c8- | 
[V:3] z4G4 | 
[V:4] C,8 | 
[V:1] E4E4 | 
[V:2] c8 | 
[V:3] G4G4 | 
[V:4] C,4C,4 | 
[V:1] F8 | 
[V:2] F4F2B2- | 
[V:3] d8 | 
[V:4] B,,8 | 
[V:1] F6D2 | 
[V:2] B2AGA2B2 | 
[V:3] c6B2 | 
[V:4] F,6B,,2 | 
[V:1] D3EF2G2- | 
[V:2] B4z2G2 | 
[V:3] B8 | 
[V:4] B,,3C,D,2_E,2- | 
[V:1] GFD2E3F | 
[V:2] G4G2c2- | 
[V:3] B4c4- | 
[V:4] E,F,G,2C,3D, | 
[V:1] G2A3Bc2 | 
[V:2] cBAGF4 | 
[V:3] c4c4 | 
[V:4] E,2F,3G,A,2 | 
[V:1] F4z2B2 | 
[V:2] z4f4 | 
[V:3] d8- | 
[V:4] B,4B,,4 | 
[V:1] B4B3c | 
[V:2] f4f2g2- | 
[V:3] d8 | 
[V:4] z2B,2B,2B,2 | 
[V:1] d2d4cB | 
[V:2] g2g2f4- | 
[V:3] d4d2d2 | 
[V:4] G,4B,4 | 
[V:1] A3FABc2- | 
[V:2] f2edc4 | 
[V:3] c2c2A3B | 
[V:4] F,8- | 
[V:1] c2B4A2 | 
[V:2] f2f3edc | 
[V:3] c2d2c4 | 
[V:4] F,8 | 
[V:1] B4z2B2 | 
[V:2] d4z2f2 | 
[V:3] B8 | 
[V:4] z4B,,4 | 
[V:1] A4A4 | 
[V:2] f4f4 | 
[V:3] z4c4 | 
[V:4] F,4F,4 | 
[V:1] G8 | 
[V:2] e8 | 
[V:3] c4c4 | 
[V:4] C,8 | 
[V:1] G4G2B2- | 
[V:2] d4d2B2- | 
[V:3] B8 | 
[V:4] G,6G,2 | 
[V:1] B2AGB2AG | 
[V:2] Bcd4c2 | 
[V:3] G4G4 | 
[V:4] G,2G,2E,4 | 
[V:1] F2G4F2- | 
[V:2] d2c4B2 | 
[V:3] B4A2F2 | 
[V:4] D,2E,2F,2D,2 | 
[V:1] F2E2F4 | 
[V:2] c4A2d2- | 
[V:3] G4F2B2- | 
[V:4] C,4D,4 | 
[V:1] z4D4 | 
[V:2] d2cBd2cB | 
[V:3] B2AGB2AG | 
[V:4] B,,8 | 
[V:1] F8 | 
[V:2] A4d4 | 
[V:3] F4B4 | 
[V:4] z4B,,4 | 
[V:1] F4F4 | 
[V:2] d4d4 | 
[V:3] A2F2B4 | 
[V:4] D,8- | 
[V:1] [M:3/1]F6G2A4 | 
[V:2] [M:3/1]d4d2e2f4 | 
[V:3] A12 | 
[V:4] D,12 | 
[V:1] B6G2A4 | 
[V:2] g6e2f4 | 
[V:3] [M:3/1]G8z4 | 
[V:4] [M:3/1]G,,8z4 | 
[V:1] G6A2B4 | 
[V:2] e6c2d4 | 
[V:3] z4z4G4 | 
[V:4] z12 | 
[V:1] c6A2B4 | 
[V:2] c8e4 | 
[V:3] A6F2G4 | 
[V:4] z12 | 
[V:1] A6B2c4 | 
[V:2] f6e2e4 | 
[V:3] F6G2A4 | 
[V:4] z4z4A,,4 | 
[V:1] d6B2c4 | 
[V:2] d4e8 | 
[V:3] D4z4z4 | 
[V:4] B,,6G,,2A,,4 | 
[V:1] F6G2A4 | 
[V:2] d4z4z4 | 
[V:3] d6c2c4 | 
[V:4] B,,8F,4 | 
[V:1] B6G2A4 | 
[V:2] z12 | 
[V:3] B4c8 | 
[V:4] G,6E,2F,4 | 
[V:1] D6E2F4 | 
[V:2] f8d4 | 
[V:3] B6A2A4 | 
[V:4] B,,6C,2D,4 | 
[V:1] G8F4 | 
[V:2] c4d8 | 
[V:3] G4A8 | 
[V:4] E,4D,8 | 
[V:1] G4B6A2 | 
[V:2] B6c2d4 | 
[V:3] G6A2B4 | 
[V:4] _E,6D,2B,,4 | 
[V:1] F4c6B2 | 
[V:2] c6d2e4 | 
[V:3] A6B2c4 | 
[V:4] F,6E,2C,4 | 
[V:1] A2G2A6G2 | 
[V:2] f8f4 | 
[V:3] F6G2A4 | 
[V:4] D,6E,2F,4 | 
[V:1] G6^F2F4 | 
[V:2] _e4d2c2d4 | 
[V:3] B4A8 | 
[V:4] G,4D,8 | 
[V:1] G12- | 
[V:2] B6G2B2c2 | 
[V:3] G12- | 
[V:4] G,,12- | 
[V:1] G12 |]  
[V:2] d12 |]  
[V:3] G12 |]  
[V:4] G,,12 |]  



